icons/whatsapp-line.svg

<svg viewBox="0 0 24 24" fill="currentColor" xmlns="http://www.w3.org/2000/svg"><path d="M7.25361 18.4944L7.97834 18.917C9.18909 19.623 10.5651 20 12.001 20C16.4193 20 20.001 16.4183 20.001 12C20.001 7.58172 16.4193 4 12.001 4C7.5827 4 4.00098 7.58172 4.00098 12C4.00098 13.4363 4.37821 14.8128 5.08466 16.0238L5.50704 16.7478L4.85355 19.1494L7.25361 18.4944ZM2.00516 22L3.35712 17.0315C2.49494 15.5536 2.00098 13.8345 2.00098 12C2.00098 6.47715 6.47813 2 12.001 2C17.5238 2 22.001 6.47715 22.001 12C22.001 17.5228 17.5238 22 12.001 22C10.1671 22 8.44851 21.5064 6.97086 20.6447L2.00516 22ZM8.39232 7.30833C8.5262 7.29892 8.66053 7.29748 8.79459 7.30402C8.84875 7.30758 8.90265 7.31384 8.95659 7.32007C9.11585 7.33846 9.29098 7.43545 9.34986 7.56894C9.64818 8.24536 9.93764 8.92565 10.2182 9.60963C10.2801 9.76062 10.2428 9.95633 10.125 10.1457C10.0652 10.2428 9.97128 10.379 9.86248 10.5183C9.74939 10.663 9.50599 10.9291 9.50599 10.9291C9.50599 10.9291 9.40738 11.0473 9.44455 11.1944C9.45903 11.25 9.50521 11.331 9.54708 11.3991C9.57027 11.4368 9.5918 11.4705 9.60577 11.4938C9.86169 11.9211 10.2057 12.3543 10.6259 12.7616C10.7463 12.8783 10.8631 12.9974 10.9887 13.108C11.457 13.5209 11.9868 13.8583 12.559 14.1082L12.5641 14.1105C12.6486 14.1469 12.692 14.1668 12.8157 14.2193C12.8781 14.2457 12.9419 14.2685 13.0074 14.2858C13.0311 14.292 13.0554 14.2955 13.0798 14.2972C13.2415 14.3069 13.335 14.2032 13.3749 14.1555C14.0984 13.279 14.1646 13.2218 14.1696 13.2222V13.2238C14.2647 13.1236 14.4142 13.0888 14.5476 13.097C14.6085 13.1007 14.6691 13.1124 14.7245 13.1377C15.2563 13.3803 16.1258 13.7587 16.1258 13.7587L16.7073 14.0201C16.8047 14.0671 16.8936 14.1778 16.8979 14.2854C16.9005 14.3523 16.9077 14.4603 16.8838 14.6579C16.8525 14.9166 16.7738 15.2281 16.6956 15.3913C16.6406 15.5058 16.5694 15.6074 16.4866 15.6934C16.3743 15.81 16.2909 15.8808 16.1559 15.9814C16.0737 16.0426 16.0311 16.0714 16.0311 16.0714C15.8922 16.159 15.8139 16.2028 15.6484 16.2909C15.391 16.428 15.1066 16.5068 14.8153 16.5218C14.6296 16.5313 14.4444 16.5447 14.2589 16.5347C14.2507 16.5342 13.6907 16.4482 13.6907 16.4482C12.2688 16.0742 10.9538 15.3736 9.85034 14.402C9.62473 14.2034 9.4155 13.9885 9.20194 13.7759C8.31288 12.8908 7.63982 11.9364 7.23169 11.0336C7.03043 10.5884 6.90299 10.1116 6.90098 9.62098C6.89729 9.01405 7.09599 8.4232 7.46569 7.94186C7.53857 7.84697 7.60774 7.74855 7.72709 7.63586C7.85348 7.51651 7.93392 7.45244 8.02057 7.40811C8.13607 7.34902 8.26293 7.31742 8.39232 7.30833Z"/></svg>

<svg xmlns="http://www.w3.org/2000/svg" viewBox="0 0 24 24">
    <g>
        <path fill="none" d="M0 0h24v24H0z"/>
        <path fill-rule="nonzero" d="M7.253 18.494l.724.423A7.953 7.953 0 0 0 12 20a8 8 0 1 0-8-8c0 1.436.377 2.813 1.084 4.024l.422.724-.653 2.401 2.4-.655zM2.004 22l1.352-4.968A9.954 9.954 0 0 1 2 12C2 6.477 6.477 2 12 2s10 4.477 10 10-4.477 10-10 10a9.954 9.954 0 0 1-5.03-1.355L2.004 22zM8.391 7.308c.134-.01.269-.01.403-.004.054.004.108.01.162.016.159.018.334.115.393.249.298.676.588 1.357.868 2.04.062.152.025.347-.093.537a4.38 4.38 0 0 1-.263.372c-.113.145-.356.411-.356.411s-.099.118-.061.265c.014.056.06.137.102.205l.059.095c.256.427.6.86 1.02 1.268.12.116.237.235.363.346.468.413.998.75 1.57 1l.005.002c.085.037.128.057.252.11.062.026.126.049.191.066a.35.35 0 0 0 .367-.13c.724-.877.79-.934.796-.934v.002a.482.482 0 0 1 .378-.127c.06.004.121.015.177.04.531.243 1.4.622 1.4.622l.582.261c.098.047.187.158.19.265.004.067.01.175-.013.373-.032.259-.11.57-.188.733a1.155 1.155 0 0 1-.21.302 2.378 2.378 0 0 1-.33.288 3.71 3.71 0 0 1-.125.09 5.024 5.024 0 0 1-.383.22 1.99 1.99 0 0 1-.833.23c-.185.01-.37.024-.556.014-.008 0-.568-.087-.568-.087a9.448 9.448 0 0 1-3.84-2.046c-.226-.199-.435-.413-.649-.626-.89-.885-1.562-1.84-1.97-2.742A3.47 3.47 0 0 1 6.9 9.62a2.729 2.729 0 0 1 .564-1.68c.073-.094.142-.192.261-.305.127-.12.207-.184.294-.228a.961.961 0 0 1 .371-.1z"/>
    </g>
</svg>
